X: 30353
M: 6/8
L: 1/8
K: G
d |\
d2B B2G | G2G D2D | c2c edc | c3 B2d |\
d2B B2G | G2G E2e | ded cBA | G2B G2 :|
|: G |\
d2B Bcd | efg gfe | ded cBA | G2B G2 :|


